X: 5235
T: Broken Gold Ring, The
R: jig
M: 6/8
K: Dmajor
f/e/|dAF AFE|DFE DFA|~d3ede|fdB BAB|
dAF AFE|DB,A, DFA|~d3 ede|fdc d2:|
B|AFA dcd|BAB dAF|DEF EDE|FDB, B,A,B,|
DFA ~d3|BAB dAF|DEF EDE|FDD D2:|

